X: 685
T: Afternoon At The Green Monster
R: hornpipe
M: 4/4
K: Dmajor
e2dB eAA2|e2dB eagd|cdd2 gdd2|cdd2 gdd2|
e2dB eAA2|e2dB eagd|dgge aged|eAA2 A4:|
eAAA aAAA|eAAA aAeA|dGGG fGGG|dGGG fGdG|
eAAA aAAA|eAAA aAeA|dgge aged|eAA2 A2Bd:|
dcAd cAdc|dcAd cAdc|dcGd cGdc|dcGd cGdc|
dcAd cAdc|dcAd cAdc|dgge aged|eAA2 A4:|
A2BA cAA2|cAdA eAA2|dgge a2e2|adgd e4|
A2BA cAA2|cAdA eAA2|dgge aged|eAA2 A4:|

